X: 1
P: Lamp-Lighters' Hornpipe
R: reel
C: New England
C: Ryan's Mammoth Collection, arr. T. Traub 2-18-2004
M: 4/4
L: 1/8
K: A
|: cd|"A"ecec eagf|ecec eagf|ecec fedc|"Bm"d2 B2 "E"B2 cd|"A"ecec eagf|
ecec eagf|"A"efde "E"cdBc|"A"A2 c2 A2 :||: cd|"A"edcd e2 fe|"Bm"dcBc "E"d2 ed|
"A"cAcA "D"dcBA|"E"GABc B2 cd|"A"edcd e2 fe|"Bm"dcBc "E"d2 ed|"A"caec "E"BdcB|"A"A2 c2 A2 :|
